Sources/FrostedUI/Resources/Icons.xcassets/shoppingBag12.imageset/shopping-bag-12.svg

<svg width="12" height="12" viewBox="0 0 12 12" fill="none" xmlns="http://www.w3.org/2000/svg" data-fui-icon="true">
  <g clip-path="url(#clip0_4630_29)">
    <path
      d="M8.11572 0.25C9.76561 0.250418 11.1544 1.48698 11.3442 3.12598L11.9224 8.12598C12.1458 10.0559 10.6366 11.7497 8.69385 11.75H3.30713C1.36409 11.75 -0.144877 10.0561 0.0786133 8.12598L0.656738 3.12598C0.846637 1.48685 2.23518 0.250179 3.88525 0.25H8.11572ZM3.88525 1.75C2.99681 1.75018 2.24919 2.41625 2.14697 3.29883L1.56787 8.29883C1.44763 9.33807 2.26093 10.25 3.30713 10.25H8.69385C9.7398 10.2497 10.5533 9.33789 10.4331 8.29883L9.854 3.29883C9.75183 2.41638 9.00398 1.75042 8.11572 1.75H3.88525ZM8.00049 3.25C8.41448 3.25026 8.75049 3.58595 8.75049 4H8.00049C8.74972 4 8.75049 4.00059 8.75049 4.00098V4.01758C8.75036 4.02552 8.7499 4.0361 8.74951 4.04785C8.74873 4.07129 8.74729 4.10244 8.74463 4.13965C8.7393 4.21417 8.72942 4.31578 8.70947 4.43555C8.67006 4.67203 8.58921 4.99913 8.42139 5.33496C8.25195 5.67384 7.98562 6.03618 7.57275 6.31152C7.15511 6.58995 6.63151 6.74992 6.00049 6.75C5.36942 6.75 4.84591 6.58989 4.42822 6.31152C4.01525 6.03621 3.74908 5.67388 3.57959 5.33496C3.41172 4.9991 3.33093 4.67207 3.2915 4.43555C3.27155 4.31576 3.26168 4.21418 3.25635 4.13965C3.25369 4.10243 3.25225 4.07129 3.25146 4.04785C3.25107 4.0361 3.25062 4.02552 3.25049 4.01758V4.00098C3.2555 4.0006 3.3146 4 4.00049 4H3.25049C3.25049 3.58579 3.58628 3.25 4.00049 3.25C4.4122 3.25026 4.74682 3.58226 4.75049 3.99316V3.99707C4.75068 4.00285 4.75122 4.01514 4.75244 4.03223C4.75492 4.06698 4.76074 4.12206 4.77197 4.18945C4.79505 4.32777 4.83948 4.50123 4.92139 4.66504C5.00187 4.82582 5.11099 4.96396 5.26025 5.06348C5.40502 5.1599 5.63201 5.25 6.00049 5.25C6.36897 5.24992 6.59603 5.15994 6.74072 5.06348C6.88988 4.96394 6.99915 4.82578 7.07959 4.66504C7.16145 4.50126 7.20593 4.32773 7.229 4.18945C7.24023 4.12208 7.24605 4.06696 7.24854 4.03223C7.24975 4.01515 7.2503 4.00284 7.25049 3.99707C7.25056 3.99493 7.2505 3.99336 7.25049 3.99316C7.25416 3.5821 7.58856 3.25 8.00049 3.25Z"
      fill="currentColor"
    />
  </g>
  <defs>
    <clipPath id="clip0_4630_29"><path fill="currentColor" d="M0 0H12V12H0z" /></clipPath>
  </defs>
</svg>

<svg xmlns="http://www.w3.org/2000/svg" width="12" height="12" fill="none" data-fui-icon="true" viewBox="0 0 12 12"><g clip-path="url(#a)"><path fill="currentColor" d="M8.116.25a3.25 3.25 0 0 1 3.228 2.876l.578 5a3.25 3.25 0 0 1-3.228 3.624H3.307A3.25 3.25 0 0 1 .08 8.126l.578-5A3.25 3.25 0 0 1 3.885.25zm-4.23 1.5a1.75 1.75 0 0 0-1.739 1.549l-.58 5a1.75 1.75 0 0 0 1.74 1.951h5.387c1.046 0 1.86-.912 1.74-1.951l-.58-5A1.75 1.75 0 0 0 8.116 1.75zM8 3.25a.75.75 0 0 1 .75.75H8l.75.001v.047l-.005.092a3.213 3.213 0 0 1-.323 1.195c-.17.339-.436.701-.85.977-.417.278-.94.438-1.572.438-.63 0-1.154-.16-1.572-.438a2.5 2.5 0 0 1-.848-.977 3.2 3.2 0 0 1-.329-1.287V4L4 4h-.75a.75.75 0 0 1 1.5-.007v.004l.001.035q.004.054.02.157c.023.139.067.312.15.476.08.16.189.299.338.398.145.097.372.187.74.187.369 0 .596-.09.74-.187.15-.1.26-.237.34-.398a1.7 1.7 0 0 0 .17-.672A.75.75 0 0 1 8 3.25"/></g><defs><clipPath id="a"><path fill="currentColor" d="M0 0h12v12H0z"/></clipPath></defs></svg>
